X:561
T:(untitled)
C:John Malchair's Third Collection of Tunes
F:https://www.vwml.org/record/Malchair/3619/p56
F:www.vwml.org/topics/historic-dance-and-tune-books/Malchair
Z:Eric Conrad Jan 2020
M:3/4
L:1/4
R:waltz
K:Dmix
P:A
|: d2 | [DAf]2 d | [DAa]2 f | g/e/c/A/ f | d d d |
[DAf]2 d | [DAa]2 f | g/e/c/A/ f | d z :|
P:B
|: d/4e/4f/4g/4 | a a a | d'2 A | (g/>e/) (g/>e/) (f/>d/) | (g/>e/) (g/>e/) (f/>d/) |
a a a | d2 a | g/e/c/A/ f | d z :|



